icon-themes/sifr_svg/cmd/lc_imagebutton.svg

<svg viewBox="0 0 24 24" xmlns="http://www.w3.org/2000/svg"><g fill="#555753"><path d="m3 5c-1 0-2 1-2 2v9c0 1 1 2 2 2h18c1 0 2-1 2-2v-9c0-1.00046-1-2-2-2zm14 1c1.656853 0 3 1.3431458 3 3 0 1.656854-1.343147 3-3 3s-3-1.343146-3-3c0-1.6568542 1.343147-3 3-3zm-9 1 7.5 8.5 2.976562-2.976562 3.5 3.207031v1.269531h-19.976562v-.820312h-.0234375l.0234375-3.179688z"/><path d="m17 6c-1.656854 0-3 1.3431458-3 3 0 1.656854 1.343146 3 3 3s3-1.343146 3-3c0-1.6568542-1.343146-3-3-3zm-9 1-6 6-.0234375 3.179688h.0234375v.820312h19.976562v-1.269531l-3.5-3.207031-2.976562 2.976562z" opacity=".35"/></g></svg>

<svg xmlns="http://www.w3.org/2000/svg" viewBox="0 0 24 24">
  <path
     style="fill:#555753"
     d="M 3 5 C 2 5 1 6 1 7 L 1 16 C 1 17 2 18 3 18 L 21 18 C 22 18 23 17 23 16 L 23 7 C 23 5.99954 22 5 21 5 L 3 5 z M 17 6 C 18.656853 6 20 7.3431458 20 9 C 20 10.656854 18.656853 12 17 12 C 15.343147 12 14 10.656854 14 9 C 14 7.3431458 15.343147 6 17 6 z M 8 7 L 15.5 15.5 L 18.476562 12.523438 L 21.976562 15.730469 L 21.976562 17 L 2 17 L 2 16.179688 L 1.9765625 16.179688 L 2 13 L 8 7 z "
     />
  <path
     style="fill:#555753;opacity:0.35"
     d="M 17 6 C 15.343146 6 14 7.3431458 14 9 C 14 10.656854 15.343146 12 17 12 C 18.656854 12 20 10.656854 20 9 C 20 7.3431458 18.656854 6 17 6 z M 8 7 L 2 13 L 1.9765625 16.179688 L 2 16.179688 L 2 17 L 21.976562 17 L 21.976562 15.730469 L 18.476562 12.523438 L 15.5 15.5 L 8 7 z "
     />
</svg>
